frontend/src/assets/icons/team-formation/have-a-team.svg

<svg width="192" height="192" viewBox="0 0 192 192" fill="none" xmlns="http://www.w3.org/2000/svg">
    <circle cx="96" cy="96" r="96" fill="#0066FF"/>
    <path d="M113.278 66.5192C113.278 70.4363 111.535 74.1929 108.434 76.9627C105.333 79.7324 101.127 81.2885 96.7416 81.2885C92.356 81.2885 88.1501 79.7324 85.049 76.9627C81.9479 74.1929 80.2057 70.4363 80.2057 66.5192C80.2057 62.6022 81.9479 58.8456 85.049 56.0758C88.1501 53.306 92.356 51.75 96.7416 51.75C101.127 51.75 105.333 53.306 108.434 56.0758C111.535 58.8456 113.278 62.6022 113.278 66.5192ZM59.5359 81.2885C62.8251 81.2885 65.9796 80.1214 68.3054 78.0441C70.6312 75.9668 71.9378 73.1493 71.9378 70.2115C71.9378 67.2738 70.6312 64.4563 68.3054 62.379C65.9796 60.3016 62.8251 59.1346 59.5359 59.1346C56.2467 59.1346 53.0922 60.3016 50.7664 62.379C48.4406 64.4563 47.134 67.2738 47.134 70.2115C47.134 73.1493 48.4406 75.9668 50.7664 78.0441C53.0922 80.1214 56.2467 81.2885 59.5359 81.2885ZM133.947 81.2885C137.237 81.2885 140.391 80.1214 142.717 78.0441C145.043 75.9668 146.349 73.1493 146.349 70.2115C146.349 67.2738 145.043 64.4563 142.717 62.379C140.391 60.3016 137.237 59.1346 133.947 59.1346C130.658 59.1346 127.504 60.3016 125.178 62.379C122.852 64.4563 121.545 67.2738 121.545 70.2115C121.545 73.1493 122.852 75.9668 125.178 78.0441C127.504 80.1214 130.658 81.2885 133.947 81.2885ZM72.8555 92.4577C73.5311 91.3151 74.543 90.3588 75.7822 89.6919C77.0213 89.025 78.4407 88.6727 79.8874 88.6731H113.596C115.704 88.6731 117.726 89.4211 119.217 90.7527C120.708 92.0843 121.545 93.8903 121.545 95.7734V118.212C121.524 123.64 119.272 128.873 115.218 132.917C111.163 136.962 105.588 139.536 99.5496 140.153C93.511 140.77 87.4289 139.386 82.4567 136.264C77.4846 133.142 73.9682 128.499 72.5744 123.215C72.1507 121.574 71.9371 119.895 71.9378 118.212V95.7734C71.9378 94.5771 72.2685 93.4472 72.8555 92.4577ZM65.7368 95.7734C65.7368 94.5918 65.9187 93.4472 66.2577 92.3654H47.134C46.0376 92.3654 44.9861 92.7544 44.2108 93.4468C43.4355 94.1393 43 95.0784 43 96.0577V114.519C42.9994 117.087 43.748 119.61 45.1721 121.84C46.5962 124.07 48.6466 125.93 51.1209 127.236C53.5953 128.543 56.4082 129.251 59.2823 129.29C62.1563 129.329 64.9923 128.699 67.5103 127.461C66.3334 124.49 65.7336 121.362 65.7368 118.212V95.7734ZM127.746 118.212C127.749 121.362 127.15 124.49 125.973 127.461C128.491 128.699 131.327 129.329 134.201 129.29C137.075 129.251 139.888 128.543 142.362 127.236C144.837 125.93 146.887 124.07 148.311 121.84C149.735 119.61 150.484 117.087 150.483 114.519V96.0577C150.483 95.0784 150.048 94.1393 149.272 93.4468C148.497 92.7544 147.446 92.3654 146.349 92.3654H127.226C127.565 93.4509 127.746 94.5918 127.746 95.7734V118.212Z"
          fill="white"/>
</svg>

<svg width="192" height="192" fill="none" xmlns="http://www.w3.org/2000/svg"><circle cx="96" cy="96" r="96" fill="#06F"/><path d="M113.278 66.52c0 3.916-1.743 7.673-4.844 10.443-3.101 2.77-7.307 4.326-11.692 4.326-4.386 0-8.592-1.557-11.693-4.326-3.101-2.77-4.843-6.527-4.843-10.444 0-3.917 1.742-7.673 4.843-10.443 3.101-2.77 7.307-4.326 11.693-4.326 4.385 0 8.591 1.556 11.692 4.326 3.101 2.77 4.844 6.526 4.844 10.443zM59.536 81.288c3.29 0 6.444-1.168 8.77-3.245 2.325-2.077 3.632-4.895 3.632-7.832 0-2.938-1.307-5.756-3.633-7.833-2.325-2.077-5.48-3.244-8.77-3.244-3.288 0-6.443 1.167-8.769 3.244-2.325 2.077-3.632 4.895-3.632 7.833 0 2.937 1.307 5.755 3.632 7.832 2.326 2.077 5.48 3.245 8.77 3.245zm74.411 0c3.29 0 6.444-1.168 8.77-3.245 2.326-2.077 3.632-4.895 3.632-7.832 0-2.938-1.306-5.756-3.632-7.833s-5.48-3.244-8.77-3.244c-3.289 0-6.443 1.167-8.769 3.244-2.326 2.077-3.633 4.895-3.633 7.833 0 2.937 1.307 5.755 3.633 7.832s5.48 3.245 8.769 3.245zM72.856 92.457c.675-1.143 1.687-2.1 2.926-2.766a8.678 8.678 0 0 1 4.105-1.019h33.709c2.108 0 4.13.748 5.621 2.08 1.491 1.331 2.328 3.137 2.328 5.02v22.439c-.021 5.428-2.273 10.661-6.327 14.705-4.055 4.045-9.63 6.619-15.668 7.236-6.039.617-12.121-.767-17.093-3.889-4.972-3.122-8.489-7.765-9.883-13.049a19.968 19.968 0 0 1-.636-5.003V95.773c0-1.196.33-2.326.918-3.315zm-7.12 3.315c0-1.181.183-2.326.522-3.408H47.134c-1.096 0-2.148.39-2.923 1.082-.776.692-1.211 1.631-1.211 2.61v18.462c0 2.568.748 5.091 2.172 7.321 1.424 2.23 3.475 4.09 5.949 5.396 2.474 1.307 5.287 2.015 8.161 2.054 2.874.039 5.71-.591 8.228-1.829a25.01 25.01 0 0 1-1.773-9.249V95.773zm62.01 22.439a25.012 25.012 0 0 1-1.773 9.249c2.518 1.238 5.354 1.868 8.228 1.829 2.874-.039 5.687-.747 8.161-2.054 2.475-1.306 4.525-3.166 5.949-5.396 1.424-2.23 2.173-4.753 2.172-7.321V96.058c0-.98-.435-1.919-1.211-2.611-.775-.693-1.826-1.082-2.923-1.082h-19.123c.339 1.086.52 2.227.52 3.408v22.439z" fill="#fff"/></svg>
